img/sign-in.svg

<svg width="10" height="18" viewBox="0 0 10 18" fill="none" xmlns="http://www.w3.org/2000/svg">
<path d="M10 4.68975C10 2.10379 7.75703 0 5 0C2.24297 0 0 2.10379 0 4.68975C0 6.92116 1.67008 8.79322 3.89923 9.26483V16.9675C3.89923 17.537 4.39335 18 5 18C5.60665 18 6.10077 17.5365 6.10077 16.9675V16.636H7.58312C8.00614 16.636 8.35038 16.3299 8.35038 15.9533C8.35038 15.5767 8.00614 15.2706 7.58312 15.2706H7.55345C7.41228 15.2706 7.2977 15.1631 7.2977 15.0307V14.6488C7.2977 14.5164 7.41228 14.4089 7.55345 14.4089H7.58312C8.00614 14.4089 8.35038 14.1028 8.35038 13.7262C8.35038 13.3496 8.00614 13.0435 7.58312 13.0435H6.10077V9.26435C8.33043 8.79322 10 6.92116 10 4.68975ZM5 7.32944C3.44552 7.32944 2.18568 6.14777 2.18568 4.68975C2.18568 3.23173 3.44552 2.05006 5 2.05006C6.55448 2.05006 7.81432 3.23173 7.81432 4.68975C7.81432 6.14777 6.55448 7.32944 5 7.32944Z" fill="white"/>
</svg>

<svg width="10" height="18" fill="none" xmlns="http://www.w3.org/2000/svg"><path d="M10 4.69C10 2.104 7.757 0 5 0S0 2.104 0 4.69c0 2.23 1.67 4.103 3.9 4.575v7.703C3.9 17.537 4.392 18 5 18c.607 0 1.1-.463 1.1-1.032v-.332h1.483c.423 0 .767-.306.767-.683 0-.376-.344-.682-.767-.682h-.03c-.14 0-.255-.108-.255-.24v-.382c0-.133.114-.24.255-.24h.03c.423 0 .767-.306.767-.683 0-.376-.344-.683-.767-.683H6.101V9.264C8.33 8.794 10 6.921 10 4.69zM5 7.33c-1.554 0-2.814-1.182-2.814-2.64 0-1.458 1.26-2.64 2.814-2.64s2.814 1.182 2.814 2.64c0 1.458-1.26 2.64-2.814 2.64z" fill="#fff"/></svg>
